X: 16088
T: Green Fields Of Woodford, The
R: jig
M: 6/8
K: Gmajor
d|:dBA G2E|EDE G2e|edB dBA|B2e efg|
dBA G2E|EDE G2G|AGE A2A|1 GED D2d:|2 GED D2c||
|:BGG dGG|ede dBA|BGG dGG|edB A2d|
BAB deg|age d2B|GAB AGE|1 GED D2c:|2 GED D2d||

